public/icons/cardano.svg

<svg width="42" height="39" viewBox="0 0 42 39" fill="none" xmlns="http://www.w3.org/2000/svg">
<g clip-path="url(#clip0_88_1665)">
<path d="M20.4847 0.185C21.4001 -0.29233 22.5175 0.815 22.0311 1.72955C21.7487 2.47505 20.6777 2.67329 20.1306 2.10503C19.551 1.55966 19.74 0.48173 20.4847 0.185ZM10.6389 1.24634C11.1949 1.01744 11.8989 1.5269 11.8422 2.13296C11.9012 2.79089 11.0967 3.27515 10.5299 2.96246C9.7789 2.67161 9.86479 1.45256 10.6389 1.24634ZM30.8043 2.98094C29.9353 2.87594 29.7978 1.50968 30.6344 1.23458C31.2833 0.91811 31.8787 1.51157 31.9736 2.12666C31.8375 2.65187 31.3978 3.13277 30.8043 2.98094ZM12.8791 5.43689C13.8088 4.84889 15.1354 5.72459 14.9924 6.80441C14.9441 7.89473 13.4959 8.52641 12.6788 7.78931C11.8888 7.21034 12.0085 5.88209 12.8791 5.43689ZM27.0711 6.0608C27.4859 4.9919 29.1665 4.95956 29.6386 6.00011C30.1052 6.80987 29.5313 7.81262 28.6999 8.08793C27.5987 8.29352 26.5527 7.10303 27.0711 6.0608ZM19.299 8.02724C19.29 7.10849 20.1269 6.42389 21 6.36131C21.5792 6.47744 22.2105 6.72419 22.4589 7.30862C22.922 8.11481 22.5108 9.22487 21.6741 9.59489C21.2915 9.8093 20.8392 9.72887 20.4225 9.70388C19.7856 9.39119 19.2493 8.77799 19.299 8.02724ZM4.65679 9.36599C5.50603 8.84393 6.65179 9.7967 6.33028 10.7192C6.15325 11.5172 5.08057 11.8419 4.46737 11.3324C3.8128 10.8551 3.91654 9.70745 4.65679 9.36599ZM36.099 9.36431C36.8195 8.80487 38.0086 9.44663 37.9227 10.3564C37.971 11.1859 36.943 11.8114 36.2278 11.3843C35.4401 11.0302 35.3596 9.81833 36.099 9.36431ZM23.4167 11.016C24.6057 10.5888 26.018 11.1 26.6957 12.16C27.5896 13.456 27.114 15.4295 25.7267 16.1731C24.2893 17.0526 22.1903 16.3071 21.6594 14.7019C21.0567 13.2649 21.9347 11.4664 23.4167 11.016ZM16.4405 11.1573C17.7583 10.5353 19.5317 11.0571 20.1682 12.4051C20.9173 13.7172 20.3381 15.5442 18.999 16.2217C17.6581 16.9831 15.7664 16.4058 15.1175 14.9971C14.3899 13.6349 15.036 11.7846 16.4405 11.1573ZM9.45529 13.5454C9.55546 12.6964 10.3564 12.1439 11.1645 12.0868C12.0351 12.1918 12.7307 12.868 12.8254 13.7491C12.7683 14.6215 12.0942 15.4741 11.1697 15.4688C10.1527 15.5564 9.26104 14.5446 9.45529 13.5454ZM30.0874 12.2713C31.1315 11.6636 32.5813 12.5483 32.5349 13.7479C32.6065 15.0188 31.0019 15.9144 29.9622 15.1689C28.8822 14.5482 28.9664 12.7999 30.0874 12.2713ZM13.6015 16.7506C14.8227 16.4146 16.219 16.9903 16.8179 18.1127C17.4739 19.2425 17.2058 20.812 16.1868 21.6407C14.88 22.8562 12.4698 22.3681 11.7743 20.7094C10.9751 19.1887 11.9459 17.1509 13.6015 16.7506ZM26.8334 16.7443C28.0206 16.4048 29.4152 16.8624 30.0534 17.9439C30.8971 19.1808 30.4944 21.0256 29.2381 21.823C27.9223 22.7489 25.884 22.2627 25.1599 20.815C24.2821 19.3175 25.1654 17.2011 26.8334 16.7443ZM5.74732 18.1555C6.80215 17.7565 7.97143 18.9206 7.54408 19.9664C7.28305 20.9191 5.94031 21.2713 5.24668 20.5689C4.43503 19.9093 4.73554 18.4416 5.74732 18.1555ZM34.3388 19.6732C34.3084 18.7992 34.9478 18.0251 35.8441 17.9768C36.5665 18.0913 37.269 18.674 37.2118 19.4605C37.278 20.4991 36.0264 21.2052 35.1414 20.7171C34.7267 20.5063 34.514 20.0808 34.3388 19.6732ZM0.560741 18.6686C1.19536 18.3916 1.98034 18.9416 1.83544 19.6463C1.80142 20.4443 0.623321 20.7511 0.190511 20.0844C-0.191899 19.6213 0.0370007 18.9073 0.560741 18.6686ZM40.5748 18.6526C41.0217 18.3345 41.7386 18.5632 41.9156 19.0852C42.2159 19.6554 41.6653 20.4366 41.0235 20.3402C40.1226 20.4223 39.8312 19.0493 40.5748 18.6526ZM17.0485 22.4832C18.7184 22.0489 20.5135 23.4415 20.524 25.1609C20.633 26.8985 18.865 28.4392 17.1556 28.0379C15.8343 27.8252 14.7975 26.5524 14.8403 25.2172C14.8368 23.9402 15.8004 22.7533 17.0485 22.4832ZM23.6618 22.4797C25.3567 22.0059 27.2053 23.4234 27.1784 25.1826C27.2679 26.888 25.5551 28.3769 23.8815 28.0386C22.3064 27.8349 21.1443 26.1045 21.5841 24.5761C21.806 23.5576 22.6569 22.7293 23.6618 22.4797ZM10.9108 23.5381C12.0837 23.3379 13.1832 24.6464 12.7076 25.7601C12.3606 26.9468 10.6336 27.2687 9.87004 26.2993C8.97439 25.3684 9.64303 23.6666 10.9108 23.5381ZM30.3053 23.5903C31.3512 23.1523 32.6349 24.057 32.5545 25.192C32.5965 26.4415 31.0116 27.3031 29.9889 26.5738C28.8305 25.919 29.0414 23.9921 30.3053 23.5903ZM35.7263 29.0277C35.3168 28.2643 36.0606 27.2525 36.9082 27.3939C37.3301 27.3867 37.6251 27.7192 37.8952 27.998C37.9506 28.4504 38.0436 28.9901 37.6682 29.3387C37.1583 29.984 36.0033 29.7998 35.7263 29.0277ZM4.65322 27.6064C5.44534 27.0791 6.58522 27.8655 6.40714 28.7916C6.31243 29.6106 5.2807 30.0787 4.60114 29.614C3.87181 29.1921 3.89869 27.9909 4.65322 27.6064ZM20.3024 29.3208C21.3394 28.8632 22.6605 29.766 22.5622 30.9082C22.6391 32.1703 21.0051 33.0443 19.9912 32.2864C18.865 31.6357 19.0527 29.7211 20.3024 29.3208ZM13.0543 31.0117C13.9375 30.547 15.1228 31.3496 15.0423 32.3381C15.0692 33.1498 14.2771 33.8415 13.4762 33.7216C12.8128 33.7073 12.3802 33.1126 12.1674 32.5471C12.1784 31.9307 12.432 31.2442 13.0543 31.0117ZM27.7362 31.026C28.6445 30.4647 29.9353 31.2709 29.8494 32.328C29.8728 33.4328 28.4139 34.1405 27.5682 33.4148C26.7494 32.8459 26.8494 31.4784 27.7362 31.026ZM30.2894 37.338C29.8853 36.7267 30.361 35.9902 31.017 35.8508C31.5446 35.9581 32.1023 36.3548 31.9914 36.9663C31.9146 37.7939 30.7041 38.0478 30.2894 37.338ZM10.0221 36.8071C10.1829 36.3226 10.5727 35.8411 11.1431 35.9671C11.9745 36.0261 12.2212 37.2792 11.4936 37.6654C10.8392 38.1066 10.08 37.5024 10.0221 36.8071ZM19.7999 37.363C19.9591 36.6463 20.8869 36.2977 21.4984 36.6784C21.9024 36.8518 22.0204 37.304 22.1242 37.6883C22.0687 37.8884 22.0192 38.0887 21.9704 38.2889C21.7201 38.5856 21.3984 38.8823 20.9818 38.8716C20.2075 38.9623 19.509 38.0871 19.7999 37.363Z" fill="#3CC8C8"/>
</g>
<defs>
<clipPath id="clip0_88_1665">
<rect width="42" height="38.808" fill="white" transform="translate(0 0.0707397)"/>
</clipPath>
</defs>
</svg>

<svg width="42" height="39" fill="none" xmlns="http://www.w3.org/2000/svg"><g clip-path="url(#a)"><path d="M20.485.185c.915-.477 2.032.63 1.546 1.545-.282.745-1.353.943-1.9.375-.58-.545-.391-1.623.354-1.92Zm-9.846 1.061c.556-.229 1.26.28 1.203.887.06.658-.745 1.142-1.312.83-.751-.291-.665-1.51.109-1.717Zm20.165 1.735c-.869-.105-1.006-1.471-.17-1.746.65-.317 1.245.277 1.34.892-.137.525-.576 1.006-1.17.854ZM12.88 5.437c.93-.588 2.256.288 2.113 1.367-.048 1.09-1.496 1.722-2.313.985-.79-.579-.67-1.907.2-2.352Zm14.192.624c.415-1.07 2.095-1.101 2.568-.06.466.809-.108 1.812-.94 2.087-1.1.206-2.146-.985-1.628-2.027ZM19.3 8.027c-.009-.919.828-1.603 1.701-1.666.58.116 1.21.363 1.459.948.463.806.052 1.916-.785 2.286-.383.214-.835.134-1.252.109-.636-.313-1.173-.926-1.123-1.677ZM4.657 9.366c.849-.522 1.995.43 1.673 1.353-.177.798-1.25 1.123-1.863.613-.654-.477-.55-1.625.19-1.966Zm31.442-.002c.72-.56 1.91.083 1.824.992.048.83-.98 1.455-1.695 1.028-.788-.354-.868-1.566-.129-2.02Zm-12.682 1.652c1.189-.427 2.601.084 3.279 1.144.894 1.296.418 3.27-.97 4.013-1.437.88-3.536.134-4.067-1.471-.602-1.437.276-3.236 1.758-3.686Zm-6.977.141c1.318-.622 3.092-.1 3.728 1.248.75 1.312.17 3.14-1.169 3.817-1.34.761-3.233.184-3.881-1.225-.728-1.362-.082-3.212 1.322-3.84Zm-6.985 2.388c.1-.849.901-1.401 1.71-1.458.87.105 1.566.781 1.66 1.662-.057.872-.73 1.725-1.655 1.72-1.017.087-1.909-.924-1.715-1.924Zm20.632-1.274c1.044-.607 2.494.277 2.448 1.477.072 1.27-1.533 2.166-2.573 1.42-1.08-.62-.996-2.368.125-2.897Zm-16.485 4.48c1.22-.336 2.617.24 3.216 1.362.656 1.13.388 2.699-.631 3.528-1.307 1.215-3.717.727-4.413-.932-.799-1.52.172-3.558 1.828-3.958Zm13.231-.007c1.188-.34 2.582.118 3.22 1.2.844 1.237.441 3.082-.815 3.879-1.316.926-3.354.44-4.078-1.008-.878-1.498.005-3.614 1.673-4.07ZM5.747 18.156c1.055-.4 2.224.765 1.797 1.81-.26.953-1.604 1.305-2.297.603-.812-.66-.511-2.127.5-2.413Zm28.592 1.517c-.03-.874.609-1.648 1.505-1.696.722.114 1.425.697 1.368 1.483.066 1.04-1.186 1.745-2.07 1.257-.415-.21-.628-.636-.803-1.044ZM.56 18.67c.634-.277 1.42.273 1.274.977-.034.798-1.212 1.105-1.644.438-.383-.463-.154-1.177.37-1.415Zm40.014-.016c.447-.319 1.164-.09 1.34.432.3.57-.25 1.352-.892 1.255-.9.082-1.192-1.29-.448-1.687Zm-23.527 3.83c1.67-.434 3.466.959 3.476 2.678.109 1.737-1.659 3.278-3.368 2.877-1.322-.213-2.358-1.486-2.316-2.82-.003-1.278.96-2.465 2.209-2.735Zm6.614-.003c1.695-.474 3.543.943 3.516 2.703.09 1.705-1.623 3.194-3.297 2.856-1.575-.204-2.737-1.934-2.297-3.463.222-1.018 1.073-1.847 2.078-2.096ZM10.91 23.538c1.173-.2 2.272 1.108 1.797 2.222-.347 1.187-2.074 1.509-2.838.54-.896-.932-.227-2.633 1.04-2.762Zm19.394.052c1.046-.438 2.33.467 2.25 1.602.041 1.25-1.543 2.111-2.566 1.382-1.159-.655-.948-2.582.316-2.984Zm5.421 5.438c-.41-.764.335-1.775 1.182-1.634.422-.007.717.325.987.604.056.452.149.992-.227 1.34-.51.646-1.665.462-1.942-.31ZM4.653 27.606c.792-.527 1.932.26 1.754 1.186-.095.819-1.126 1.287-1.806.822-.73-.422-.702-1.623.052-2.008Zm15.65 1.715c1.036-.458 2.357.445 2.26 1.587.076 1.262-1.558 2.136-2.572 1.378-1.126-.65-.938-2.565.311-2.965Zm-7.249 1.69c.883-.464 2.069.339 1.988 1.327.027.812-.765 1.504-1.566 1.384-.663-.015-1.096-.61-1.309-1.175.011-.616.265-1.303.887-1.535Zm14.682.015c.909-.561 2.2.245 2.113 1.302.024 1.105-1.435 1.813-2.28 1.087-.82-.57-.72-1.937.167-2.389Zm2.553 6.312c-.404-.611.072-1.348.728-1.487.528.107 1.085.504.974 1.115-.076.828-1.287 1.082-1.702.372Zm-20.267-.53c.16-.485.55-.967 1.121-.84.832.058 1.078 1.311.35 1.697-.654.442-1.413-.163-1.47-.858Zm9.778.555c.16-.717 1.087-1.065 1.698-.685.404.174.522.626.626 1.01-.055.2-.105.4-.154.6-.25.298-.572.594-.988.584-.774.09-1.473-.785-1.182-1.509Z" fill="#3CC8C8"/></g><defs><clipPath id="a"><path fill="#fff" transform="translate(0 .07)" d="M0 0h42v38.808H0z"/></clipPath></defs></svg>
